!!!OTL: Shanshang wushu chenghuangshan
!!!ARE: Asia, China,ÿGuangdong Shunfeng
!! II, 349, 2)
!!!SCT: C1881
!!!YEM: Copyright 1995, estate of Helmut Schaffrath.
**kern
*ICvox
*Ivox
*M2/4
*k[f#c#]
*D:
{16ee
16ee
=1
8ee
8ee
8ee
8ee
=2
8ee
16dd
16ee
16dd
16b
8r}
=3
{8a
8dd
8dd
16b
16a
=4
16b
16dd
4.a
=5
8a
4a}
{16a
16a
=6
8a
8e
8a
16g#
16a
=7
8ee
16dd
16ee
16dd
16b
8r}
=8
{8a
8dd
8dd
16b
16a
=9
16dd
16b
4.a
=10
8a
4.a}
==
!!!AGN: Shange, Tangkeng shange
!!!AMT: simple duple
!!!AIN: vox
!!!EED: Helmut Schaffrath
!!!EEV: 1.0
*-
